X:332
T: Duncan Grey
N: O'Farrell's Pocket Companion v.4 (Sky ed. p.145-6)
N: "Scotch"
M: C
L: 1/8
Q: 200
R: march
K: G
G| DGFG AB F2| G2 A>c BGG :|
P:2
c| Bd dc/B/ cc/d/ c2| Bc/B/ AGFE D2| de/d/ cd/c/ Bc/B/ A2|
G2 A>c BGG :|
P:3
G|DG c/B/A/G/ A/B/c/A/ F2| GA/B/ AB/c/ BGG :|
P:4
z| Bddg ceeg| Bd dc/B/ c/B/A/G/ FE/D/| dgca Bg a/c'/b/a/|
G2 A>c BGG :|
P:5
z| D/G/B/G/ D/G/B/G/ D/A/c/A/ D/A/c/A/| Bg f/e/d/c/ BG g/d/B/G/|
D/G/B/G/ D/G/B/G/ D/A/c/A/ D/A/c/A/| Bg f/e/d/c/ BGG :|
P:6
g| b/g/d/B/ G/B/d/B/ G/B/d/g/ b/g/d/g/| a/f/d/A/ F/A/d/A/ F/A/d/f/ a/f/d/A/|
G/B/d/g/ b/g/a/f/ g/f/g/e/ d/c/B/A/| Bg f/e/d/c/ BGG :|
P:7
z| dgfg ab f2| g2 ab/c'/ bgg :|
P:8
z| b/d'/e'/b/ a/g/a/b/ c'4| bc'/b/ a/b/a/g/ f/g/a/f/ de/f/|
gb/g/ e/f/g/e/ a/b/c'/a/ g/f/e/d/| e/g/f/a/ g/e/d/c/ BGG :|
